X:1
T:Title
%%score { 1 | ( 2 3 ) }
L:1/8
Q:1/4=104
M:4/4
K:F
V:1 treble nm="Grand Piano"
V:2 bass 
V:3 bass 
V:1
 FCDE F2 [CEG][CEG] | [CFA]2 [A,F]d c2 A2 | [Ec][EG][EG][FA] [GB]4 | [Ec][EG][FA][GB] A4 | %4
w: J.~H.~Rosecrans * * * * * *||||
 FCDE F2 [CEG][CEG] | [CFA]2 [A,F]d c2 A2 | cGGc e2 d2 | [Ec]6 z2 | %8
w: ||||
 [EG][_E^F][=EG][=FA] [GB]2 [FA][EG] | F2 d2 c2 A2 | [EG][_E^F][=EG][=FA] [GB]2 [FA][EG] | %11
w: |||
 F2 d2 c2 A2 | c[FA][FB][Fc] [Fd]4 | [GB][CEG][CFA][CGB] [CAc]4 | %14
w: |||
 [CFA][A,F][B,DG][DFB] [CFA]2 [B,EG]2 | [A,F]6 z2 |] %16
w: ||
V:2
 F,C,D,E, F,2 C,C, | F,2 z B, [F,A,F]2 [F,CF]2 | [C,C][C,C][C,C][C,C] [C,C]4 | %3
 [C,C][C,C][C,C][C,C] [F,CF]4 | F,C,D,E, F,2 C,C, | F,2 z B,[K:treble] [F,A,F]2 [F,CF]2 | %6
 [G,CE][G,CE][G,CE][G,E] [G,CG]2 [G,=B,F]2 | [C,C]6 z2 | [C,C][C,C][C,C][C,C] [C,C]2 [C,C][C,B,] | %9
 [F,A,]2 [F,B,F]2 [F,A,F]2 [F,CF]2 | [C,C][C,C][C,C][C,C] [C,C]2 [C,C][C,B,] | %11
 [F,A,]2 [F,B,F]2 [F,A,F]2 [F,CF]2 | [F,A,F][_E,C][D,D][C,A,] [B,,B,]4 | [C,G,]B,A,G, F,4 | %14
 F,F,B,,B,, C,2 C,2 | F,6 z2 |] %16
V:3
 x8 | z2 F,2 z4 | x8 | x8 | x8 | z2 F,2[K:treble] z4 | x8 | x8 | x8 | x8 | x8 | x8 | x8 | x8 | x8 | %15
 x8 |] %16

